X: 40640
T: Tootsie's Flowers
R: waltz
M: 3/4
K: Gmajor
F2|:GG DE GA|d2 B2 AG|c2 B2 AG|AA AA BA|
GG DE GA|d2 BB AG|c2 BA GE|1 GG DA BA:|2 GG GG Bc||
|:d2 Bd fg-|ge de dB|c2 BB AG|
[1 AA AA Bc|d2 Bd fg-|ge de dB|c2 BA GE|GG GG Bc:|
[2 AA AA BA|GG DE GA|d2 BB AG|c2 BA GE|G4||

